X:287
T:Glenmoriston
R:Strathspey
B:The Athole Collection
M:C
L:1/8
K:G
E|D>G GF/G/ D>GB,>G|G,>G GF/G/ B>A A<B|D>G GF/G/ D<GB,<G|
D>EG>A B<GG:|
B/c/|d<B g>B d>gB>b|g>d B<G B>A AB/c/|d<B g>B d<gB<G|
D>EG>A B<GG B/c/|d>Bg>B d>G B<b|G>d B<G B>A Ad/c/|
B<GF<G E<GD<B,|C>E D<G B,<G,G,||

